X: 20828
T: Johnny's Gone To France
R: polka
M: 2/4
K: Eminor
B2 Ac BAGF|FDAF BFAF|B2 Ac BAGF|FDAF E2 E2:|
Bdef gfed|BdAc BdAc|Bdef gfed|BdAF E2 E2|
Bdef gfed|BdAc BdAc|Bdef gefd|BdAF E2 E2:|

